!!!COM: Bach, Johann Sebastian
!!!OTL: Der Tag, der ist so freudenreich
!!!ONM: No. 158
!!!OCL: Erk
!!!YOE: Riemenschneider, Albert
!!!OPR: 371 Harmonized Chorales and 69 Chorale Melodies with Figured Bass
!!!OPT: Bach Chorale Harmonizations
**kern	**kern	**kern	**kern
! bass	! tenor	! alto	! soprano
*M4/4	*M4/4	*M4/4	*M4/4
*G:	*G:	*G:	*G:
8G	4B	4d	4g
8F#	.	.	.
=1	=1	=1	=1
8E	4B	4e	4g
8D	.	.	.
8C	4c	4.e	4g
8BB	.	.	.
4AA	4c	.	4a
.	.	8f#	.
4GG	8d	4g	4b
.	8fn	.	.
=2	=2	=2	=2
4C	4e	[4g	8cc
.	.	.	8b
4D	8A	8g]	4a
.	16d	8f#	.
.	16c	.	.
2GG;	2B;	2d;	2g;
=3	=3	=3	=3
4D	4d	4f#	4a
8AA	8c	8e	4a
8BB	[8B	8d	.
4C	8B]	[4e	4e
.	[8A	.	.
4D	8A]	8e]	4f#
.	16B	16d	.
.	16A	16c	.
=4	=4	=4	=4
4E	[4G	8B	4g
.	.	8G	.
4D	8G]	4d	4a
.	8F#	.	.
4GG;	4B;	4d;	4g;
!! Repeat from the beginning.
8G	4B	4d	4g
8F#	.	.	.
=1	=1	=1	=1
8E	4B	4e	4g
8D	.	.	.
8C	4c	4.e	4g
8BB	.	.	.
4AA	4c	.	4a
.	.	8f#	.
4GG	8d	4g	4b
.	8fn	.	.
=2	=2	=2	=2
4C	4e	[4g	8cc
.	.	.	8b
4D	8A	8g]	4a
.	16d	8f#	.
.	16c	.	.
2GG;	2B;	2d;	2g;
=3	=3	=3	=3
4D	4d	4f#	4a
8AA	8c	8e	4a
8BB	[8B	8d	.
4C	8B]	[4e	4e
.	[8A	.	.
4D	8A]	8e]	4f#
.	16B	16d	.
.	16A	16c	.
=4	=4	=4	=4
4E	[4G	8B	4g
.	.	8G	.
4D	8G]	4d	4a
.	8F#	.	.
4GG;	4B;	4d;	4g;
!! Continuing
4G	4B	4d	4g
=5	=5	=5	=5
4F#	8A	4d	4dd
.	8c	.	.
8G	8B	8g	4dd
8F#	8A	8a	.
4E	4G	8b	4ee
.	.	8cc	.
4F#	4d	8b	8dd
.	.	8a	8cc
=6	=6	=6	=6
8G	4d	4g	4b
8f#	.	.	.
4E	4e	4g	4cc#
4D;	4f#;	4a;	4dd;
4F#	8d	4a	4dd
.	8c	.	.
=7	=7	=7	=7
8G	8B	4g	4dd
8A	8c	.	.
8B	8d	4g	4dd
8G	8B	.	.
4c	8c	4g	4ee
.	8B	.	.
4F#	8A	[4a	8dd
.	8d	.	8cc
=8	=8	=8	=8
4G	4d	8a]	4b
.	.	[8g	.
4D	8.d	8g]	4a
.	.	8f#	.
.	16c	.	.
2GG;	2B;	2d;	2g;
=9	=9	=9	=9
8C	4G	4c	4e
8BB	.	.	.
4AA	4A	4c	4f#
4BB	8D	8d	4g
.	4G	4B	.
4C#	.	.	4e
.	16F#	8A	.
.	16E	.	.
=10	=10	=10	=10
4D	4F#	8A	4d
.	.	8B	.
4AA	8E	4A	4c#
.	16F#	.	.
.	16G	.	.
2DD;	2F#;	2A;	2d;
=11	=11	=11	=11
8E	4B	4e	4g
8D	.	.	.
8C	4c	4e	4g
8BB	.	.	.
4AA	4c	8e	4a
.	.	8f#	.
4GG	8d	4g	4b
.	8fn	.	.
=12	=12	=12	=12
4C	4e	[4g	8cc
.	.	.	8b
4D	8A	8g]	4a
.	16d	8f#	.
.	16c	.	.
2GG;	2B;	2d;	2g;
=13	=13	=13	=13
8DD	8F#	4d	4a
8EE	8G	.	.
8FF#	4A	4d	4a
8GG	.	.	.
8AA	4A	4c#	4e
8GG	.	.	.
4FF#	4A	4d	4f#
=14	=14	=14	=14
4EE	4B	4d	8g
.	.	.	8f#
4AA	8E	4c#	4e
.	16A	.	.
.	16G	.	.
4D;	4F#;	4A;	4d;
4BB	4G	4d	4fn
=15	=15	=15	=15
4.C	4G	4c	4e
.	4E	4G	4c
8BB	.	.	.
4AA	4A	4c	4e
8D	4A	4d	4f#
8C	.	.	.
=16	=16	=16	=16
8BB	4G	4.d	4g
8GG	.	.	.
4D	4F#	.	4a
.	.	8c	.
4GG;	4G;	4B;	4g;
==	==	==	==
*-	*-	*-	*-
!!!CDT: 1685/3//-1750/7/28
!!!OCY: Deutschland
!!!AGN: chorale
!!!AST: Baroque
!!!AIN: vox
!!!YOY: 1941
!!!PPP: New York; London
!!!PPR: G. Schirmer
!!!ENC: David Huron
!!!EED: David Huron
!!!YEN: United States of America
!!!YER: 1992
!!!YEC: Copyright 1992 David Huron
!!!YEM: Rights to all derivative electronic formats reserved.
!!!YER: March 20, 1996
!!!AMT: simple quadruple
!!!EEV: 1.1
